X:1
T:Title
%%score { ( 1 3 ) | ( 2 4 ) }
L:1/8
M:6/8
K:F
V:1 treble nm="Grand Piano"
V:3 treble 
V:2 bass 
V:4 bass 
V:1
 z3 z2[Q:1/4=100] C | FFF F2 F | G2 E F2 F | AAA A2 A | [GB]2 [EG] A2 A | c2 A FFA | [EG]6 | %7
 [EG][EG][EG] [EG]2 [FA] | [GB]2 [FA] [EG]2 [EG] | AAA A2 [GB] | [Ac]2 [GB] [FA]2 [Fc] | %11
 [Fd]2 [DFB] [CFA][CFA][B,EG] |[M:5/8] [A,F]-[A,F]- [A,F]3 |[M:1/8] [A,FA] | %14
[M:3/4] [Ec]2 [EG] [Ec]2 [EB] |[M:7/8] A2 C F3 A |[M:3/4] [Ed]2 [DFB][CFA] [CFA][B,EG] | %17
[M:5/8] [A,F]-[A,F]- [A,F]3 |[M:1/8] [FAf] |[M:3/4] e2 z B z2 | [FAc]4[K:bass][K:treble] z2 | %21
 [CA]2 [A,F][G,E] FG |[M:5/8] [A,F]-[A,F]- [A,F]3[K:bass] |] %23
V:2
 z3 z2 C, | [F,A,C][F,A,C][F,A,C] [F,A,C]2 [F,A,C] | [C,B,C]2 [C,G,C] [F,A,C]2 [F,A,C] | %3
 [F,CF][F,CF][F,CF] [F,CF]2 [F,CF] | [C,C]2 [C,C][K:treble] [F,CF]2 [F,CF] | %5
 [A,CF]2[K:bass] [F,CF] [F,A,C][F,A,C][F,CF] | [C,C]3- [C,C]2 [C,C] | %7
 [C,C][C,C][C,C] [C,C]2 [C,C] | [C,C]2 [C,C] [C,C]2 [C,C] | [F,CF][F,CF][F,CF] [F,CF]2 [F,C] | %10
 [F,C]2 [F,C] [F,C]2 [F,A,] | [B,,B,]2 B,, C,C,C, |[M:5/8] F,-F,- F,3 |[M:1/8] F, | %14
[M:3/4] [C,G,]2 [C,C] [C,C]2 [C,C] |[M:7/8] [F,CF]2 [F,A,] [F,A,C]3 [F,CF] | %16
[M:3/4] [B,,B,]2 B,,C, C,C, |[M:5/8] F,-F,- F,3 |[M:1/8] [F,,F,] |[M:3/4] [C,,C,]3 [C,,C,]3 | %20
 F,4 z2 | [C,,C,]4 A,B, |[M:5/8] F,,A,,C, F,,2 |] %23
V:3
 x6 | x6 | x6 | x6 | x6 | x6 | x6 | x6 | x6 | x6 | x6 | x6 |[M:5/8] x5 |[M:1/8] x |[M:3/4] x6 | %15
[M:7/8] x7 |[M:3/4] x6 |[M:5/8] x5 |[M:1/8] x |[M:3/4] [GB]2- [GBd][EG]- [E-G-c][EGd] | %20
 z[K:bass] A,, C,[K:treble] [FA]2 [DB] | x6 |[M:5/8] F,3[K:bass] F,2 |] %23
V:4
 x6 | x6 | x6 | x6 | x3[K:treble] x3 | x2[K:bass] x4 | x6 | x6 | x6 | x6 | x6 | x6 |[M:5/8] x5 | %13
[M:1/8] x |[M:3/4] x6 |[M:7/8] x7 |[M:3/4] x6 |[M:5/8] x5 |[M:1/8] x |[M:3/4] x6 | %20
 .F,,2 z [F,,F,]2 [B,,,B,,] | z2 z [C,,C,]3 |[M:5/8] x5 |] %23

